UI/Tools/SVG/finetune_outline_24px.svg

<svg width="24" height="24" viewBox="0 0 24 24" fill="none" xmlns="http://www.w3.org/2000/svg">
<path fill-rule="evenodd" clip-rule="evenodd" d="M22 17V19H20V17H22ZM12 15V21C12 21.2652 12.1054 21.5196 12.2929 21.7071C12.4804 21.8946 12.7348 22 13 22H17C17.2652 22 17.5196 21.8946 17.7071 21.7071C17.8946 21.5196 18 21.2652 18 21V15L15 12L12 15ZM2 19H10V17H2V19ZM22 2H20V10H22V2ZM16 2H14V10H16V2ZM10 2H8V10H10V2ZM4 2H2V10H4V2Z" fill="#0F1621"/>
</svg>

<svg xmlns="http://www.w3.org/2000/svg" width="24" height="24" viewBox="0 0 24 24"><rect width="24" height="24" style="fill:none"/><path d="M22,17v2H20V17ZM12,15v6a1,1,0,0,0,1,1h4a1,1,0,0,0,1-1V15l-3-3ZM2,19h8V17H2ZM22,2H20v8h2ZM16,2H14v8h2ZM10,2H8v8h2ZM4,2H2v8H4Z" style="fill-rule:evenodd"/></svg>
